X:1
T:Title
%%score { ( 1 3 ) | ( 2 4 ) }
L:1/8
M:4/4
K:G
V:1 treble nm="Grand Piano"
V:3 treble 
V:2 bass 
V:4 bass 
V:1
 z4 z2[Q:1/4=86] (3DEF | G2 G2 G>G (3BAG | [EA]2 E2 E2 (3E[DF][EG] | %3
 [DF]2 [DA]2 [Fc]>[Fc] (3[FA][FA][FA] | B2 c2 B2 (3DEF | G2 G2 G>G (3BAG | %6
 [EA]2 [CE]2 [Ge]2 (3[Ge][Ge][Ge] | [Gd]2 [DG]2 [DA]>[DB] (3[Ec][Ec][Ec] | %8
[M:3/4] [DB]2 [CDA]2 [B,DG]2 |[M:1/4] [B,G]2 |[M:4/4] [CEG]>[Ec] [Ec]>[Ec] [Ec]2 [Ge]2 | %11
 [ce]>[Bd] [Bd]>[_B^c] [=Bd]2 [GB]>[GB] | [FA]>[=F^G] [^FA]>[=GB] [Ac]2 [Bd]>[Ac] | %13
 B>A G>A B>[GB] [Gc]>[Gd] | [Ge]2 [Ge]2 [EGc]2 [Ge]2 | d>c B>c d2 B>c | %16
 d>[D=FG] [CEA]>[EAc] [DGB]2 [C^FA]2 |[M:3/4] [B,DG]6 |] %18
V:2
 z4 z2 (3D,E,F, | G,2 [G,B,D]2[K:treble] [G,B,D]>[G,B,D] (3[G,DG][G,CG][G,B,] | %2
 [C,C]2 [C,G,C]2 [C,G,C]2 (3[C,G,C][C,C][C,C] | [D,A,]2 [D,F,]2 [D,A,]>[D,A,] (3[D,D][D,D][D,D] | %4
 [G,DG]2 [G,EG]2 [G,DG]2[K:bass] (3D,E,F, | %5
 G,2 [G,B,D]2[K:treble] [G,B,D]>[G,B,D] (3[G,DG][G,CG][G,B,] | %6
 [C,C]2 [C,G,]2 [C,C]2 (3[C,C][C,C][C,C] | [G,,B,]2 [B,,G,]2 [D,F,]>[C,G,] (3[C,G,][C,G,][C,G,] | %8
[M:3/4] [D,G,]2 D,2 G,,2 |[M:1/4] z =F |[M:4/4] C,>[C,G,] [C,G,]>[C,G,] [C,G,]2 [C,C]2 | %11
 [G,E]>[G,D] [G,D]>[G,^C] [G,D]2 [G,D]>[G,D] | [D,D]>[D,D] [D,D]>[D,D] [D,D]2 [D,D]>[D,D] | %13
 [G,DG]>[G,CD] [G,B,D]>[G,CD] [G,DG]>[K:bass][=F,D] [E,C]>[D,B,] | [C,C]2 [C,C]2 C,2 [C,C]2 | %15
 [G,B,G]>[G,EG] [G,DG]>[G,CG] [G,B,G]2 [G,DG]>[G,A,G] | [G,B,G]>[K:bass]B,, C,>A,, D,2 D,2 | %17
[M:3/4] G,,6 |] %18
V:3
 x8 | x8 | x8 | x8 | x8 | x8 | x8 | x8 |[M:3/4] x6 |[M:1/4] D z |[M:4/4] x8 | x8 | x8 | x8 | x8 | %15
 x8 | x8 |[M:3/4] x6 |] %18
V:4
 x8 | x4[K:treble] x4 | x8 | x8 | x6[K:bass] x2 | x4[K:treble] x4 | x8 | x8 |[M:3/4] x6 | %9
[M:1/4] G,2 |[M:4/4] x8 | x8 | x8 | x11/2[K:bass] x5/2 | x8 | x8 | x3/2[K:bass] x13/2 | %17
[M:3/4] x6 |] %18

